assets/image/facebook.svg

<svg width="42" height="42" viewBox="0 0 42 42" fill="none" xmlns="http://www.w3.org/2000/svg">
<rect x="0.493301" y="0.5" width="41" height="41" fill="white"/>
<rect x="0.493301" y="0.5" width="41" height="41" stroke="#18B5DC"/>
<path d="M25.7725 22.25L26.3429 18.6305H22.7764V16.2816C22.7764 15.2914 23.2746 14.3262 24.8719 14.3262H26.4933V11.2445C26.4933 11.2445 25.0219 11 23.6151 11C20.678 11 18.7582 12.7336 18.7582 15.8719V18.6305H15.4933V22.25H18.7582V31H22.7764V22.25H25.7725Z" fill="#18B5DC"/>
</svg>

<svg xmlns="http://www.w3.org/2000/svg" width="42" height="42" fill="none"><path fill="#fff" d="M.493.5h41v41h-41z"/><path stroke="#18B5DC" d="M.493.5h41v41h-41z"/><path fill="#18B5DC" d="m25.773 22.25.57-3.62h-3.567v-2.348c0-.99.499-1.956 2.096-1.956h1.621v-3.082S25.022 11 23.615 11c-2.937 0-4.857 1.734-4.857 4.872v2.759h-3.265v3.619h3.265V31h4.018v-8.75h2.997Z"/></svg>
